src/assets/Icons/email copy.svg

<svg width="56" height="56" fill="none" xmlns="http://www.w3.org/2000/svg"><rect x="4" y="4" width="48" height="48" rx="24" fill="#FEB477"/><path d="M38 22c0-1.1-.9-2-2-2H20c-1.1 0-2 .9-2 2m20 0v12c0 1.1-.9 2-2 2H20c-1.1 0-2-.9-2-2V22m20 0-10 7-10-7" stroke="#B1580E" stroke-width="2" stroke-linecap="round" stroke-linejoin="round"/><rect x="4" y="4" width="48" height="48" rx="24" stroke="#FFF2E8" stroke-width="8"/></svg>

<svg width="56" height="56" viewBox="0 0 56 56" fill="none" xmlns="http://www.w3.org/2000/svg">
<rect x="4" y="4" width="48" height="48" rx="24" fill="#FEB477"/>
<path d="M38 22C38 20.9 37.1 20 36 20H20C18.9 20 18 20.9 18 22M38 22V34C38 35.1 37.1 36 36 36H20C18.9 36 18 35.1 18 34V22M38 22L28 29L18 22" stroke="#B1580E" stroke-width="2" stroke-linecap="round" stroke-linejoin="round"/>
<rect x="4" y="4" width="48" height="48" rx="24" stroke="#FFF2E8" stroke-width="8"/>
</svg>
